X: 16609
T: Handsome Sally
R: reel
M: 4/4
K: Edorian
|:~E2BE ~E2BE|~E2BE AFDF|~E2BE GBdB|AFDE FE{G}ED:|
|:fedB A4|fedB AFD2|e3f gfec|dBAG FDD2:|

